X:320
T: Lady Gordon's
S: "First Collection of Traditional Irish Music" (M.Mulvihill)
Z: B.Black
L: 1/8
M: 4/4
R: reel
K: D
FABA d2 BA|d2 BA FE (3EDE|FABA d2 BA|fafe dB (3BAB|
FABA d2 BA|d2 BA FE (3EDE|FABA d2 BA|fafe dBBf ||
ad (3dcd adbd|ad (3dcd fe e2|adfa b2 af|egfe dB (3BAB|
ad (3dcd adbd|ad (3dcd fe e2|fa (3aga b2 af|egfe dB B2||
